svg/solid/bxs-ambulance.svg

<svg xmlns="http://www.w3.org/2000/svg" width="24" height="24"><circle fill="none" cx="6.5" cy="17.5" r="1.5"/><path fill="none" d="M15 9v3h4.233l-1.799-3z"/><circle fill="none" cx="16.5" cy="17.5" r="1.5"/><path fill="none" d="M10 7H8v2H6v2h2v2h2v-2h2V9h-2z"/><path d="M21.857 12.485 19.148 7.97A2.01 2.01 0 0 0 17.434 7H15V5a1 1 0 0 0-1-1H4c-1.103 0-2 .897-2 2v10c0 .746.416 1.391 1.023 1.734C3.147 19.553 4.65 21 6.5 21c1.759 0 3.204-1.309 3.449-3h3.102c.245 1.691 1.69 3 3.449 3s3.204-1.309 3.449-3H20c1.103 0 2-.897 2-2v-3a.995.995 0 0 0-.143-.515zM6.5 19c-.827 0-1.5-.673-1.5-1.5S5.673 16 6.5 16s1.5.673 1.5 1.5S7.327 19 6.5 19zm5.5-8h-2v2H8v-2H6V9h2V7h2v2h2v2zm4.5 8c-.827 0-1.5-.673-1.5-1.5s.673-1.5 1.5-1.5 1.5.673 1.5 1.5-.673 1.5-1.5 1.5zM15 12V9h2.434l1.8 3H15z"/></svg>

<svg xmlns="http://www.w3.org/2000/svg" width="24" height="24" viewBox="0 0 24 24"><circle fill="none" cx="6.5" cy="17.5" r="1.5"/><path fill="none" d="M15 9L15 12 19.233 12 17.434 9z"/><circle fill="none" cx="16.5" cy="17.5" r="1.5"/><path fill="none" d="M10 7L8 7 8 9 6 9 6 11 8 11 8 13 10 13 10 11 12 11 12 9 10 9z"/><path d="M21.857,12.485l-2.709-4.515C18.789,7.372,18.132,7,17.434,7H15V5c0-0.553-0.447-1-1-1H4C2.897,4,2,4.897,2,6v10 c0,0.746,0.416,1.391,1.023,1.734C3.147,19.553,4.65,21,6.5,21c1.759,0,3.204-1.309,3.449-3h3.102c0.245,1.691,1.69,3,3.449,3 s3.204-1.309,3.449-3H20c1.103,0,2-0.897,2-2v-3C22,12.818,21.951,12.641,21.857,12.485z M6.5,19C5.673,19,5,18.327,5,17.5 S5.673,16,6.5,16S8,16.673,8,17.5S7.327,19,6.5,19z M12,11h-2v2H8v-2H6V9h2V7h2v2h2V11z M16.5,19c-0.827,0-1.5-0.673-1.5-1.5 s0.673-1.5,1.5-1.5s1.5,0.673,1.5,1.5S17.327,19,16.5,19z M15,12V9h2.434l1.8,3H15z"/></svg>
